public/assets/img/icons/single-blog.svg

<svg width="40" height="40" viewBox="0 0 40 40" fill="none" xmlns="http://www.w3.org/2000/svg">
<path d="M19.9995 0C8.95419 0 0 8.95486 0 19.9997C0 31.0451 8.95419 40.0003 19.9995 40.0003C31.0447 40.0003 40 31.0451 40 19.9997C40 8.95433 31.0447 0 19.9995 0ZM12.0423 27.2619C11.2787 27.2619 10.6609 26.6439 10.6609 25.88C10.6609 25.1168 11.2789 24.4988 12.0423 24.4988C12.8056 24.4988 13.4238 25.1168 13.4238 25.88C13.4238 26.6439 12.8056 27.2619 12.0423 27.2619ZM12.0423 21.3816C11.2787 21.3816 10.6609 20.7636 10.6609 19.9993C10.6609 19.2361 11.2789 18.6181 12.0423 18.6181C12.8056 18.6181 13.4238 19.2361 13.4238 19.9993C13.4238 20.7637 12.8056 21.3816 12.0423 21.3816ZM12.0423 15.5014C11.2787 15.5014 10.6609 14.8834 10.6609 14.1196C10.6609 13.3564 11.2789 12.7384 12.0423 12.7384C12.8056 12.7384 13.4238 13.3564 13.4238 14.1196C13.4238 14.8834 12.8056 15.5014 12.0423 15.5014ZM29.3393 27.1754H16.3868C15.6229 27.1754 15.0036 26.556 15.0036 25.7922C15.0036 25.0283 15.6229 24.409 16.3868 24.409H29.3393C30.1031 24.409 30.7225 25.0283 30.7225 25.7922C30.7225 26.556 30.1031 27.1754 29.3393 27.1754ZM29.3393 21.3399H16.3868C15.6229 21.3399 15.0036 20.7205 15.0036 19.9567C15.0036 19.1928 15.6229 18.5735 16.3868 18.5735H29.3393C30.1031 18.5735 30.7225 19.1928 30.7225 19.9567C30.7225 20.7204 30.1031 21.3399 29.3393 21.3399ZM29.3393 15.5042H16.3868C15.6229 15.5042 15.0036 14.8849 15.0036 14.121C15.0036 13.3572 15.6229 12.7378 16.3868 12.7378H29.3393C30.1031 12.7378 30.7225 13.3572 30.7225 14.121C30.7225 14.8849 30.1031 15.5042 29.3393 15.5042Z" fill="#333333"/>
</svg>

<svg width="40" height="40" fill="none" xmlns="http://www.w3.org/2000/svg"><path d="M20 0C8.954 0 0 8.955 0 20s8.954 20 20 20c11.045 0 20-8.955 20-20C40 8.954 31.045 0 20 0zm-7.958 27.262a1.38 1.38 0 1 1-.001-2.762 1.38 1.38 0 0 1 .001 2.762zm0-5.88a1.38 1.38 0 1 1 0-2.762 1.38 1.38 0 0 1 0 2.762zm0-5.88a1.38 1.38 0 1 1-.001-2.762 1.38 1.38 0 0 1 .001 2.761zM29.34 27.174H16.387a1.383 1.383 0 0 1 0-2.766h12.952a1.383 1.383 0 0 1 0 2.766zm0-5.835H16.387a1.383 1.383 0 0 1 0-2.767h12.952a1.383 1.383 0 0 1 0 2.767zm0-5.836H16.387a1.383 1.383 0 0 1 0-2.766h12.952a1.383 1.383 0 0 1 0 2.766z" fill="#333"/></svg>
